X: 10281
T: Dogs Among The Bushes, The
R: reel
M: 4/4
K: Gmajor
B3 A|:GE~E2 B,E~E2|GE~E2 AcBA|GE~E2 B,EGE|FDD2 dBAF|
GE~E2 B,E~E2|GE~E2 AcBA|GFGA BcdB|1 AFDF A2 BA:|2 AFDF A3 c||
|:Bee2 efed|Beef gefe|Bddc dedc|Bdde fdec|
Be/e/e/e efed|Beef gefe|ge/e/e/e ~B3 c|d2 dc dcBA:|

